X:1
T:Violin Caprice No. 5 in A Minor
T:Violin Caprice No. 5 in A Minor
T:Op. 1, No. 5
T:Niccolò Paganini
C:Niccolò Paganini
L:1/8
Q:1/4=110
M:none
K:C
V:1 treble nm="Violin" snm="Vln."
V:1
 (!fermata!A,2 C/4E/4A/4c/4e/4a/4c'/4e'/4 !fermata!a'2) (20:16:20(^g'/4=f'/4e'/4d'/4c'/4b/4a/4^g/4f/4e/4d/4c/4B/4A/4^G/4F/4E/4D/4C/4B,/4) (!fermata!A,2 (9:8:9C/4E/4A/4c/4e/4a/4c'/4e'/4a'/4 !fermata!c''2) (22:16:22(b'/4a'/4^g'/4f'/4e'/4d'/4c'/4b/4a/4g/4f/4e/4d/4c/4B/4A/4G/4F/4E/4D/4C/4B,/4) | %1
 (!fermata!A,2 (10:8:10C/4E/4A/4c/4e/4a/4c'/4e'/4a'/4c''/4 !fermata!e''2) (d''/4c''/4b'/4a'/4^g'/4f'/4e'/4d'/4c'/4b/4a/4^g/4f/4e/4d/4c/4B/4A/4^G/4F/4E/4D/4C/4B,/4) (!fermata!A,2 (11:8:11C/4E/4A/4c/4e/4a/4c'/4e'/4a'/4c''/4e''/4 !fermata!a''2) (27:24:27(=g''/4f''/4e''/4d''/4c''/4b'/4a'/4^g'/4f'/4e'/4d'/4c'/4b/4a/4g/4f/4e/4d/4c/4B/4A/4G/4F/4E/4D/4C/4B,/4) | %2
 A, (_B,/4=B,/4C/4^C/4D/4^D/4E/4F/4^F/4G/4^G/4A/4_B/4=B/4c/4^c/4d/4^d/4e/4f/4^f/4g/4^g/4a/4g/4=g/4f/4=f/4e/4d/4=d/4c/4=c/4B/4_B/4A/4G/4=G/4F/4=F/4E/4_E/4=D/4C/4=C/4B,/4_B,/4) (A,2 !fermata![=Eca]) |: %3
[M:4/4][Q:1/4=170]"^Agitato" (.A,/.C/.E/).C/ (.B,/.D/.E/).D/ (.C/.A/.G/.F/) (.E/.D/.C/.B,/) | %4
"^simile" .A,/.C/.E/.C/ .B,/.D/.E/.D/ .C/.A/.G/.F/ .E/.D/.C/.B,/ | %5
 .A,/.^C/.E/.C/ .A,/.D/.F/.D/ .G,/.B,/.F/.B,/ .G,/.=C/.E/.C/ | %6
 .^G,/.B,/.F/.D/ .C/.A,/.A/.^D/ .E/.^G/.B/.e/ .^g/.b/.d'/.e'/ | %7
 .A/.c/.e/.c/ .B/.d/.e/.d/ .c/.a/.=g/.f/ .e/.d/.c/.B/ | %8
 .A/.c/.e/.c/ .B/.d/.e/.d/ .c/.a/.g/.f/ .e/.d/.c/.B/ | %9
 .A/.^c/.e/.c/ .a/.g/.f/.e/ .c/.d/.b/.a/ .g/.f/.e/.d/ | %10
 .=c/.B/.A/.G/ .^F/.G/.A/.=F/ .E/.G/.c/.E/ .D/.F/.B/.D/ | %11
 .C/.E/.A/.C/ .B,/.D/.G/.B,/ .A,/.C/.F/.A,/ ._A,/.C/.F/.A,/ | %12
 .G,/.B,/.F/.B,/ .C/.E/.G/.c/ .D/.F/.B/.d/ .E/.G/.c/.e/ | %13
 .F/.A/.c/.f/ .^F/._e/.c/.A/ .G/.g/.=e/.c/ .G/.=f/.d/.B/ | %14
 .c/.c'/.b/.a/ .g/.f/.e/.c/ .f/.b/.a/.g/ .^f/.e/.^d/.B/ | %15
 .e/.a/.g/.=f/ .e/.=d/.^c/.A/ .d/.g/.f/.e/ .d/.=c/.B/.G/ | %16
 .c/.f/.e/.d/ .c/.B/.A/.G/ .^F/.A/.c/._e/ .^f/.a/.c'/.f/ | %17
 .c'/.g/.=e/.c/ .G/.E/.C/.A,/ .b/.g/.d/.B/ .G/.D/.B,/.G,/ | %18
 .C/.c'/.b/._b/ .a/._a/.g/.^f/ .=f/.e/._e/.d/ ._d/.c/.B/._B/ | %19
 .A/._A/.G/.^F/ .=F/.E/._E/.D/ .C/.=E/.A/.G/ .B,/.G/.F/.D/ | %20
 .C/.E/.G,/.C/ .B,/.G/.F/.D/ .C/.E/.G,/.C/ .B,/.G/.F/.D/ |1 %21
 .C/.E/.D/.C/ .B,/.F/.D/.B,/ .A,/.C/.B,/.A,/ .^G,/.D/.B,/.G,/ :|2 %22
 .C/.G/.E/.C/ ._B,/.G/.E/.B,/ .A,/.F/.C/.A,/ .G,/.E/.B,/.G,/ || %23
 .A,/.f/.c/.A/ .G/.e/.^c/.G/ .F/.d/.A/.F/ .E/.c/.G/.E/ | %24
 .F/.d/.A/.F/ ._E/.c/.A/.E/ .D/._B/.F/.D/ .C/.A/.E/.C/ | %25
 .D/._b/.f/.d/ .c/.a/.^f/.c/ ._B/.g/.d/.B/ .A/.f/.c/.A/ | %26
 ._B/.g/.d/.B/ ._A/.=f/.d/.A/ .G/._e/.B/.G/ .F/.d/.A/.F/ | %27
 .G/._e'/._b/.g/ .f/.d'/.=b/.f/ ._e/.c'/.g/.e/ .d/.b/.f/.d/ | %28
 .c/.c'/.b/._b/ .a/._a/.g/.^f/ .=f/.e/._e/.d/ ._d/.c/.B/._B/ | %29
 .A/.^G/.=G/.^F/ .=F/.E/._E/.D/ .C/.E/._A/.G/ .B,/.G/.F/.D/ | %30
 .C/._a/.g/._g/ .f/.e/._e/.d/ ._d/.c/._c/._B/ .A/._A/.G/.^F/ | %31
 .=F/.E/._E/.D/ ._D/.C/._C/._B,/ ._A,/.=C/.F/._E/ .G,/.E/._D/._B,/ | %32
 ._A,/._A/._E/.C/ .=A,/._G/.E/.C/ ._B,/._B/.F/._D/ .=B,/.A/.F/.=D/ | %33
 .C/.c/.G/._E/ ._D/._B/.G/.D/ ._B,/.G/.=E/.c/ .G/.e/.c/._b/ | %34
 ._a/.f/.c/._A/ .E/.F/.A/.F/ ._E/._D/.C/._B,/ .=A/._B/._d/.B/ | %35
 ._A/.G/.F/._E/ .=d/._e/.g/.e/ ._a/.e/.c/.A/ .G/.A/._G/.E/ | %36
 ._D/.F/._A/.F/ ._E/._G/.A/.G/ .F/._d/.c/._B/ .A/.G/.F/.E/ | %37
 ._D/.F/._A/.F/ .D/.A/._c/.A/ .=D/.A/.c/.A/ ._E/._G/._B/.G/ | %38
 ._E/.=G/._B/.G/ .F/._A/.B/.A/ .G/._e/.d/.c/ .B/.A/.G/.F/ | %39
 ._E/.G/._B/.G/ .E/.B/._d/.B/ .=E/.B/.d/.B/ .F/._A/.c/.A/ | %40
 ._G/._e/.c/.G/ .F/.f/._d/._B/ ._A/.f/.=d/.A/ .G/._g/.e/.B/ | %41
 .^F/.=e/.^c/.^A/ .F/.E/.^C/.^A,/ .B,/.^D/.F/.B/ .^d/.^f/.b/.^d'/ | %42
 ._E/._d/._B/.G/ .E/._D/._B,/.G,/ ._A,/._C/.E/._A/ ._c/._e/._a/._c'/ | %43
 .=E/.^G/.B/.G/ .^F/.A/.B/.A/ .G/.B/.e/.B/ .A/.c/.e/.c/ | %44
 .^A/.^c/.^f/.c/ .B/.^d/.f/.d/ .^B/.d/.^g/.d/ .c/.e/.^a/.e/ | %45
 .^d/.^f/.b/.f/ .e/.^g/.b/.g/ .e/.=g/.^a/.g/ .d/.f/.b/.f/ | %46
 .=d/.=f/.^g/.f/ .^c/.e/.a/.e/ .=c/._e/.^f/.e/ .B/.d/.=g/.d/ | %47
 ._B/._d/.=e/.d/ .A/.c/.=f/.c/ .A/.c/.=d/.c/ .^G/.=B/.e/.B/ | %48
 .G/._B/.^c/.B/ .^F/.A/.d/.A/ .=F/.A/.d/.A/ .F/.A/.^d/.A/ | %49
 .E/.^G/.B/.e/ .^g/.b/.e'/.^g'/ .f/.a/.d'/.a/ .f/.a/.^d'/.a/ | %50
 .e/.^g/.b/.e'/!8va(! .^g'/.b'/.e''/.^g''/!8va)! .a/.c'/.e'/.c'/ .b/.d'/.e'/.d'/ | %51
 .c'/.a'/.g'/.f'/ .e'/.d'/.c'/.b/ .a/.c'/.e'/.c'/ .b/.d'/.e'/.d'/ | %52
 .c'/.a'/.g'/.f'/ .e'/.d'/.^c'/.a/ .d'/.g'/.f'/.e'/ .d'/.=c'/.b/.g/ | %53
 .c'/.f'/.e'/.d'/ .c'/.b/.a/.f/ .b/.e'/.d'/.c'/ .b/.a/.^g/.e/ | %54
 .a/.d'/.c'/.b/ .a/.=g/.f/.e/ .^d/.c'/.a/.^f/ .d/.c/.A/.^D/ | %55
 .c'/.a/.e/.c/ .A/.E/.C/.A,/ .b/.^g/.d/.B/ .^G/.D/.B,/.^G,/ | %56
 .A,/.a/.^g/.=g/ .^f/.=f/.e/.^d/ .=d/.^c/.=c/.B/ ._B/.A/.^G/.=G/ | %57
 .^F/.=F/.E/.^D/ .=D/.^C/.=C/.B,/ .A,/.C/.F/.E/ .^G,/.E/.D/.B,/ | %58
 .A,/.C/.B,/.D/ .C/.E/.^G,/.B,/ .A,/.C/.B,/.D/ .C/.E/.G,/.B,/ | %59
 .A,/.C/.B,/.D/ .C/.E/.^G,/.B,/ .A,/.C/.B,/.D/ .C/.E/.G,/.B,/ || %60
[K:A][Q:1/4=110] (!fermata!A,2 C/4E/4A/4c/4e/4a/4c'/4e'/4 !fermata!a'2) (20:16:20(g'/4f'/4e'/4d'/4c'/4b/4a/4g/4f/4e/4d/4c/4B/4A/4G/4F/4E/4D/4C/4B,/4) (!fermata!A,2 (9:8:9C/4E/4A/4c/4e/4a/4c'/4e'/4a'/4 !fermata!c''2) (22:16:22(b'/4a'/4g'/4f'/4e'/4d'/4c'/4b/4a/4g/4f/4e/4d/4c/4B/4A/4G/4F/4E/4D/4C/4B,/4) | %61
 (!fermata!A,2 (10:8:10C/4E/4A/4c/4e/4a/4c'/4e'/4a'/4c''/4 !fermata!e''2) (d''/4c''/4b'/4a'/4g'/4f'/4e'/4d'/4c'/4b/4a/4g/4f/4e/4d/4c/4B/4A/4G/4F/4E/4D/4C/4B,/4) (!fermata!A,2 (11:8:11C/4E/4A/4c/4e/4a/4c'/4e'/4a'/4c''/4e''/4 !fermata!a''2) (27:24:27(g''/4f''/4e''/4d''/4c''/4b'/4a'/4g'/4f'/4e'/4d'/4c'/4b/4a/4g/4f/4e/4d/4c/4B/4A/4G/4F/4E/4D/4C/4B,/4) | %62
 A, (_B,/4=B,/4=C/4^C/4D/4^D/4E/4=F/4^F/4=G/4^G/4A/4_B/4=B/4=c/4^c/4d/4^d/4e/4=f/4^f/4=g/4^g/4a/4g/4=g/4f/4=f/4e/4d/4=d/4c/4=c/4B/4_B/4A/4G/4=G/4F/4=F/4E/4D/4=D/4C/4=C/4B,/4_B,/4) (A,2 !fermata![E^ca]/) !fermata!z/ |] %63

